X: 1853
T: Süzme Çeşmin
C: Erol Başara
O: Turkey
F: http://compmusic.upf.edu/node/140
N: reyya--sarki--sofyan--suzme_cesmin--erol_basara
N: makam= reyya
N: form= sarki
N: usul= sofyan = 4/4
M: 4/4
L: 1/16
K: C _1/4B _7/8e _7/8A ^f
Q: 1/4=63
%%MIDI tuningsystem comma53
z2^C4D2 =E2F2 G4  | A3/2G/Ac BAGF G8  | \
w:   |   | 
z2G2 A2B2 c2Bc d4  | 
w:   | 
e3/2d/eg fedc d8  | dfef edc2 cede dcB2  | 
w:   |   | 
Aedc BAGA B8  | zGAB AGF2 zFGA GF=E2  | 
w:   |   | 
=EFGF EDD^C C8  | z2^C4D2 =E2F2 G4  | \
w:   |   | 
A3/2G/Ac BAGF G8  | 
w:   | 
z2G2 A2B2 c2Bc d4  | e3/2d/eg fedc d8  | \
w:   |   | 
dfef edc2 cede dcB2  | 
w:   | 
Aedc BAGA B8  | zGAB AGF2 zFGA GF=E2  | 
w:   |   | 
=EFGF EDD^C C8  | z2G4c2 B2c2 d4  | c3/2B/ce dcBA G6z2  | 
w:   |  Süz me  çeş *  min   |  gel *  *  *  *  *  me *  sin   | 
G3A B2c2 d2ed c4  | d3/2e/dg fedc d8  | \
w:  müj *  gân  *  müj *  *  gân   |  üs *  *  *  *  *  tü *  ne    | 
z2G4c2 B2c2 d4  | 
w:  Süz me  çeş *  min   | 
c3/2B/ce dcBA G6z2  | G3A B2c2 d2ed c4  | \
w:  gel *  *  *  *  *  me *  sin   |  müj *  gân  *  müj *  *  gân   | 
d3/2e/dg fedc d8  | 
w:  üs *  *  *  *  *  tü *  ne    | 
z2c4B2 c4 d4  | f3/2e/dc BAGA B6z2  | \
w:  Vur ma  zahm_ ı   |  sî *  *  *  *  *  ne *  me   | 
G2A2 A3G G3F =E4  | 
w:  pey *  kân  *  pey *  kân   | 
=E3/2F/GF EDD^C C8  | z2c4B2 c4 d4  | \
w:  üs *  *  *  *  *  tü *  ne    |  Vur ma  zahm_ ı   | 
f3/2e/dc BAGA B6z2  | 
w:  sî *  *  *  *  *  ne *  me   | 
G2A2 A3G G3F =E4  | =E3/2F/GF EDD^C C8  | z12  | ^C12  | =E12  | \
w:  pey *  kân  *  pey *  kân   |  üs *  *  *  *  *  tü *  ne    |  |  Dil  |  de   | 
F4=E4D4  | 
w:  gam   | 
^C12  | ^C8D4  | =E8F4  | G4F4A4  | G12  | G12  | \
w:  var   |  şim  |   |  *  *  di  |  lik   |  lût  | 
d8d4  | e4d4c4  | B12  | c4d4e4  | g4f4e4  | 
w:  fey le   |  gel  |  me   |  ey   |  *  *  sü  | 
d12  | d8z4  | g12  | g12  | g4f4g4  | a12  | g8a4  | \
w:  rûr    |   |  Dil  |  de   |  gam   |  var   |  şim  | 
f8g4  | e8f4  | d12  | e12  | e8e4  | e4d4c4  | 
w:   |  *  di  |  lik   |  lût  |  fey le   |  gel  | 
B12  | c4d4e4  | f4e4d4  | d12  | d12  | z16  | z4 c2B2 c4 d4  | \
w:  me   |  ey   |  *  *  sü  |  rûr    |   |  |  O la maz  bir   | 
f3/2e/dc BAGA B6z2  | 
w:  hâ *  *  *  *  *  ne *  de   | 
G2A2 A3G G3F =E4  | =E3/2F/GF EDD^C C8  | \
w:  mih *  mân  *  mih *  mân   |  üs *  *  *  *  *  tü *  ne    | 
z4 c2B2 c4 d4  | 
w:  O la maz  bir   | 
f3/2e/dc BAGA B6z2  | G2A2 A3G G3F =E4  | \
w:  hâ *  *  *  *  *  ne *  de   |  mih *  mân  *  mih *  mân   | 
=E3/2F/GF EDD^C C8  | 
w:  üs *  *  *  *  *  tü *  ne    | 
|


